!!! OTL: Berkowitz95
!!! Chapter: 1
!!! Section: I
!!! Page: 24
!!! Mode: 
!!! Encoder: DJB
**kern
*staff1
*I"Piano
=1-
*clefG2
*k[f#]
*G:
*M6/8
4dd\
8dd\
8dd\L
8cc\
8b\J
=2
8cc\L
8b\
8a\J
8b/L
8a/
8g/J
=3
4d/
8g/
8g/L
8f#/
8g/J
=4
4.a/
8a\L
8b\
8cc\J
=5
4dd\
8dd\
8dd\L
8cc\
8b\J
=6
8cc\L
8dd\
8ee\J
8.dd\L
16cc\K
8b\J
=7
16cc\LL
16dd\J
8ee\
8cc\J
16b\LL
16cc\J
8dd\
8b\J
=8
!!linebreak:original
16a\LL
16b\J
8cc\
8a\J
4g/
8r
==
*-
